X:1
T:Magnificat tertii toni - Lasso
T:#
%%score [ 1 2 3 4 ]
L:1/8
Q:1/4=130
M:none
K:C
V:1 treble nm="S" snm="S"
V:2 treble nm="A" snm="A"
V:3 treble-8 nm="T" snm="T"
V:4 treble nm="B" snm="B"
V:1
 z12 | z24 ||[Q:1/4=200][Q:1/4=200][Q:1/4=200][Q:1/4=200] z8 G8 | (A8 c8- | c4) c4 c4 c4 | %5
w: ||Et|ex\- *|* ul- ta- vit|
 d4 c4 c4 (c2 B2 | A2 B2 c8 B4) | c8 z8 |[M:4/2] z8 z4 G2 G2 | A2 G2 F4 E8 | z8 c6 c2 | %11
w: spi- ri- tus me\- *||us:|sa- lu-|ta- ri me- o,|sa- lu-|
 B2 A2 ^G4 A4 F2 F2 | E4 E4 E8 | E16 ||[Q:1/4=130][Q:1/4=130][Q:1/4=130][Q:1/4=130] z28 | z22 || %16
w: ta- ri me- o, sa- lu-|ta- ri me-|o.|||
[Q:1/4=200][Q:1/4=200][Q:1/4=200][Q:1/4=200] G8 A4 c4 | c4 c4 A4 _B4 | A4 G4 A8 | G8 G4 G4 | %20
w: Qui- a fe-|cit mi- hi ma-|gna, qui po-|tens est, et|
 B4 c4 B4 A4 | G8 E8- | E16 ||[Q:1/4=130][Q:1/4=130][Q:1/4=130][Q:1/4=130] z30 | z22 || %25
w: san- ctum no- men|e- ius.||||
[M:4/2][Q:1/4=200][Q:1/4=200][Q:1/4=200][Q:1/4=200] z8 z4 G4 | A2 c2 c2 B2 c8 | A4 A2 A2 A4 G4 | %28
w: Fe-|cit po- ten- ti- am|in bra- chi- o su-|
 A2 A2 c4 B2 G2 B4 | A2 F2 A4 G2 E2 G4- | G4 ^F4 G6 G2 | c4 B4 A8 | ^G16 || %33
w: o: di- sper- sit su- per-|bos, di- sper- sit su- per\-|* bos men- te|cor- dis su-|i.|
[Q:1/4=130][Q:1/4=130][Q:1/4=130][Q:1/4=130] z28 | z24 || %35
w: ||
[M:4/2][Q:1/4=200][Q:1/4=200][Q:1/4=200][Q:1/4=200] B4 c2 d2 c4 B2 G2 | A2 c2 B4 c4 G4 | %37
w: E- su- ri- en- tes im-|ple- vit bo- nis: et|
 A2 A2 c2 c2 B4 A4- | A2 A2 ^G4 A8 | A8 A8 | ^G16 || %41
w: di- vi- tes di- mi- sit|* i- na- nes,|i- na-|nes.|
[Q:1/4=130][Q:1/4=130][Q:1/4=130][Q:1/4=130] z28 | z22 || %43
w: ||
[M:4/2][Q:1/4=200][Q:1/4=200][Q:1/4=200][Q:1/4=200] c8 c4 c4 | c4 d4 G4 c4 | B2 A2 B4 c4 A2 A2 | %46
w: Si- cut lo-|cu- tus est ad|pa- tres no- stros, A- bra-|
 A4 G4 ^F2 F2 F4 | G4 E2 D2 E6 E2 | E16 ||[Q:1/4=130][Q:1/4=130][Q:1/4=130][Q:1/4=130] z24 | z22 || %51
w: ham, et se- mi- ni|e- ius in sae- cu-|la.|||
[M:4/2][Q:1/4=200][Q:1/4=200][Q:1/4=200][Q:1/4=200] E8 F4 G4 | A4 A2 A2 A2 A2 G2 G2 | %53
w: Si- cut e-|rat in prin- ci- pi- o, et|
 A2 c2 B4 c4 G4- | G2 G2 G4 G4 G4 | z4[Q:1/4=197] G6[Q:1/4=194] G2[Q:1/4=192] G4 | %56
w: nunc, et sem- per, et|* in sae- cu- la|sae- cu- lo-|
[Q:1/4=189] A4[Q:1/4=187] G4[Q:1/4=183] E8- |[Q:1/4=175] E16 |[Q:1/4=170] E16 |] %59
w: rum, A- men.|||
V:2
 z12 | z24 || C12 B,4 | C4 D4 (A,2 B,2 C2 D2 | E4) F8 E4 | D4 (A,2 B,2 C2 D2 E2 D2 | %6
w: ||Et ex-|ul- ta- vit * * *|* spi- ri-|tus me\- * * * * *|
 F2 E2 E2 DC D8) | C8 z8 |[M:4/2] z8 z4 E2 E2 | F2 E2 D4 E8 | z8 E6 E2 | G2 F2 E4 ^C4 D2 D2 | %12
w: |us:|sa- lu-|ta- ri me- o,|sa- lu-|ta- ri me- o, sa- lu-|
 C4 B,4 C8 | B,16 || z28 | z22 || E8 F4 G4 | A4 G4 C4 F4 | F4 E4 F8 | D8 E4 E4 | G4 E4 D4 F4 | %21
w: ta- ri me-|o.|||Qui- a fe-|cit mi- hi ma-|gna, qui po-|tens est, et|san- ctum no- men|
 (E6 D2 C8) | B,16 || z30 | z22 ||[M:4/2] z8 z4 E4 | F2 E2 F2 D2 C4 E4 | E6 E2 F4 E4 | %28
w: e\- * *|ius.|||Fe-|cit po- ten- ti- am in|bra- chi- o su-|
 F4 z2 E2 G4 G2 D2 | F4 F2 C2 E4 E2 B,2 | D4 D4 E6 E2 | E4 D4 C8 | B,16 || z28 | z24 || %35
w: o: di- sper- sit su-|per- bos, di- sper- sit su-|per- bos men- te|cor- dis su-|i.|||
[M:4/2] D4 E2 D2 E4 D2 D2 | F2 E2 G4 E4 E4 | F2 F2 G2 G2 G4 E4 | F4 E4 ^C4 E4 | F4 E4 F4 E4 | %40
w: E- su- ri- en- tes im-|ple- vit bo- nis: et|di- vi- tes di- mi- sit|i- na- nes, di-|mi- sit i- na-|
 E16 || z28 | z22 ||[M:4/2] E8 F4 G4 | F4 F4 E4 G4 | G2 F2 G4 E4 F2 F2 | F4 E4 D2 D2 D4 | %47
w: nes.|||Si- cut lo-|cu- tus est ad|pa- tres no- stros, A- bra-|ham, et se- mi- ni|
 B,4 C2 A,2 C4 C4 | B,16 || z24 | z22 ||[M:4/2] B,8 D4 E4 | F4 F2 F2 F2 F2 E2 E2 | F2 G2 G4 E8 | %54
w: e- ius in sae- cu-|la.|||Si- cut e-|rat in prin- ci- pi- o, et|nunc, et sem- per,|
 D6 D2 D4 D4 | E8 D6 D2 | F2 F2 E4 C4 B,2 B,2 | C4 B,4 C8 | B,16 |] %59
w: et in sae- cu-|la sae- cu-|lo- rum, A- men, sae- cu-|lo- rum, A-|men.|
V:3
"^Magnificat tertii toni""^Orlando di Lasso\n(1530-94)" G2 A2 c2 c2 c4 | c8 c2 B2 A2 c2 A2 G2 G4 || %2
w: Ma- gni\- * fi- cat|anima me\- * a * Do- mi- num:|
 z16 | z16 | z16 | z16 | z16 | z4 A4 (G2 A2 B2 c2) |[M:4/2][K:treble-8] (A2 c4 B2) c8 | z8 c6 c2 | %10
w: |||||In De\- * * *|* * * o|sa- lu-|
 B2 A2 ^G4 A4 c2 c2 | d2 d2 B4 A4 A4- | A2 A2 ^G2 G2 A8 | ^G16 || G2 A2 c2 c8 d2 c2 c2 B2 A2 c4 | %15
w: ta- ri me- o, sa- lu-|ta- ri me- o, sa\-|* lu- ta- ri me-|o.|Et ex\- * ultavit spi- ri- tus me\- * us|
 c8 c2 B2 A2 c2 A2 G4 || c8 c4 e4 | f4 e4 f4 d4 | c4 c4 c4 (c4- | c2 BA B4) c4 c4 | G4 G8 c4- | %21
w: in~Deo~salu- ta\- * ri * me- o.|Qui- a fe-|cit mi- hi ma-|gna, qui po- tens|* * * * est, et|san- ctum no\-|
 c4 B4 A8 | ^G16 || G2 A2 c2 c8 d2 c2 c2 c2 B2 A2 c4 | c8 c2 B2 A2 c2 A2 G4 || %25
w: * men e-|ius.|Et mi\- * sericordia~eius~a~progenie in * pro- ge- ni\- * es|timen- ti\- * bus * e- um.|
[M:4/2][K:treble-8] G4 A2 c2 c2 B2 c4 | z8 A4 A2 A2 | c8 c8 | F4 z2 c2 e4 d2 B2 | %29
w: Fe- cit po- ten- ti- am|in bra- chi-|o su-|o: di- sper- sit su-|
 d4 c2 A2 c4 B2 G2 | B4 A4 c6 c2 | G4 G4 E8 | E16 || G2 A2 c2 c8 d2 c2 c2 B2 A2 c4 | %34
w: per- bos, di- sper- sit su-|per- bos men- te|cor- dis su-|i.|De- po\- * suit~po- ten- tes de se\- * de|
 c8 c2 B2 A2 c2 A2 G2 G4 ||[M:4/2][K:treble-8] G4 G2 G2 G4 G2 B2 | c2 c2 d4 c6 c2 | %37
w: et~exal- ta\- * vit * hu- mi- les.|E- su- ri- en- tes im-|ple- vit bo- nis: et|
 c2 c2 e2 e2 d4 ^c4 | d4 B4 A4 ^c4 | d4 e4 d4 c4 | B16 || G2 A2 c2 c8 d2 c2 c2 B2 A2 c4 | %42
w: di- vi- tes di- mi- sit|i- na- nes, di-|mi- sit i- na-|nes.|Su- sce\- * pit~Israel pu- e- rum su\- * um|
 c8 c2 B2 A2 c2 A2 G4 ||[M:4/2][K:treble-8] G8 A4 G4 | A4 B4 c4 e4 | d2 c2 d4 c4 c2 c2 | %46
w: recordatus~misericor- di\- * ae * su- ae.|Si- cut lo-|cu- tus est ad|pa- tres no- stros, A- bra-|
 c4 c4 A2 A2 A4 | d4 G2 F2 G4 A4 | ^G16 || G2 A2 c2 c2 d2 c2 c2 c2 B2 A2 c4 | %50
w: ham, et se- mi- ni|e- ius in sae- cu-|la.|Glo- ri\- * a Pa- tri, et Fi- li\- * o,|
 c8 c2 B2 A2 c2 A2 G4 ||[M:4/2][K:treble-8] G8 A4 c4 | c4 d2 d2 c2 c2 c2 B2 | d2 e2 d4 c8 | %54
w: et~Spiri- tu\- * i * San- cto:|Si- cut e-|rat in prin- ci- pi- o, et|nunc, et sem- per,|
 B6 B2 B4 B4 | c8 B6 B2 | c2 d2 B4 A4 ^G2 G2 | A4 ^G4 A8 | ^G16 |] %59
w: et in sae- cu-|la sae- cu-|lo- rum, A- men, sae- cu-|lo- rum, A-|men.|
V:4
 z12 | z24 || z16 | z16 | z16 | z16 | z16 | z4 F,4 (E,2 F,2 G,2 E,2) |[M:4/2] (F,2 C,2 D,4) C,8 | %9
w: |||||||In De\- * * *|* * * o|
 z8 z4 C,2 C,2 | D,2 C,2 B,,4 A,,4 A,2 A,2 | G,2 D,2 E,4 A,,4 D,2 D,2 | A,,4 E,4 A,,8 | E,16 || %14
w: sa- lu-|ta- ri me- o, sa- lu-|ta- ri me- o, sa- lu-|ta- ri me-|o.|
 z28 | z22 || C,8 F,4 C,4 | F,4 C,4 F,4 _B,,4 | F,4 C,4 F,8 | G,8 C,8 | z4 C,4 G,,4 F,,4 | %21
w: ||Qui- a fe-|cit mi- hi ma-|gna, qui po-|tens est,|et san- ctum|
 C,4 E,4 A,,8 | E,16 || z30 | z22 ||[M:4/2] C,4 F,2 E,2 F,2 D,2 C,4 | z8 z4 A,,4 | %27
w: no- men e-|ius.|||Fe- cit po- ten- ti- am|in|
 A,,2 A,,2 A,4 F,4 C,4 | z2 F,2 A,4 G,2 E,2 G,4 | F,2 D,2 F,4 E,2 C,2 E,4 | D,8 C,6 C,2 | %31
w: bra- chi- o su- o:|di- sper- sit su- per-|bos, di- sper- sit su- per-|bos men- te|
 C,4 G,,4 A,,8 | E,16 || z28 | z24 ||[M:4/2] G,,4 C,2 B,,2 C,4 G,,2 G,2 | F,2 A,2 G,4 C,4 C,4 | %37
w: cor- dis su-|i.|||E- su- ri- en- tes im-|ple- vit bo- nis: et|
 F,2 F,2 C,2 C,2 G,4 A,4 | D,4 E,4 A,,4 A,,4 | D,4 ^C,4 D,4 A,4 | E,16 || z28 | z22 || %43
w: di- vi- tes di- mi- sit|i- na- nes, di-|mi- sit i- na-|nes.|||
[M:4/2] C,8 F,4 E,4 | F,4 D,4 C,4 C,4 | G,2 A,2 G,4 C,4 F,2 F,2 | F,4 C,4 D,2 D,2 D,4 | %47
w: Si- cut lo-|cu- tus est ad|pa- tres no- stros, A- bra-|ham, et se- mi- ni|
 G,,4 C,2 D,2 C,4 A,,4 | E,16 || z24 | z22 ||[M:4/2] E,8 D,4 C,4 | F,4 D,2 D,2 F,2 F,2 C,2 E,2 | %53
w: e- ius in sae- cu-|la.|||Si- cut e-|rat in prin- ci- pi- o, et|
 D,2 C,2 G,4 C,8 | G,6 G,2 G,4 G,4 | C,8 G,6 G,2 | F,2 D,2 E,4 A,,4 E,2 E,2 | A,,4 E,4 A,,8 | %58
w: nunc, et sem- per,|et in sae- cu-|la sae- cu-|lo- rum, A- men, sae- cu-|lo- rum, A-|
 E,16 |] %59
w: men.|

